X:1
T:Frédéric François Chopin
T:Warschauer Mazurka (Harp Version)
T:(Updated)
%%score { 1 | 2 }
L:1/8
M:3/4
K:F
V:1 treble nm="Harp" snm="Hrp."
V:2 bass 
V:1
!mf! (!1!DE FG AF | E2 D2 D2 |!<(! !1!GA Bc dB!<)! |!>(! B2 A2 A2)!>)! | (!1!DE FG AF | E2 D2 D2 | %6
!<(! !2!EF EF ED!<)! |!>(! E6)!>)! |!f! (!1!DE FG AF | E2 D2 D2 |!<(! !1!GA Bc dB!<)! | %11
!>(! B2 A2 A2)!>)! |!mp! (!1!DE FG AF | E2 D2 D2 |"_rit." !2!E!>(!F AG FE!>)! | D4 z2) |] %16
V:2
 !5!D,2 !3!!1![F,A,]2 z2 | D,2 [F,A,]2 z2 | D,2 !2!!1![G,B,]2 z2 | D,2 [F,A,]2 z2 | %4
 D,2 [F,A,]2 z2 | D,2 A,2 z2 | !4!E,2 !2!^G,4 | z2 !5![^C,G,A,]2 [C,G,A,]2 | D,2 [F,A,]2 z2 | %9
 D,2 [F,A,]2 z2 | D,2 !2![F,B,]2 z2 | D,2 [F,A,]2 z2 | D,2 [F,A,]2 z2 | D,2 [F,A,]2 z2 | %14
 [C,G,A,]6 | z2 [D,F,A,]2 z2 |] %16

